X: 15169
T: Gilderoy
R: hornpipe
M: 4/4
K: Aminor
|:E2|A2AB cBcd|efec d2 cd|edcB ABcA|B^GE2 E2 EG|
A^GAB cBcd|efec d2cd|ea^ga edcB|c2 A2 A2:|
|:e^f|g3 a g^fef|gfec d2 cd|edcB ABcA|B^G EE E2EG|
A^GAB cBcd|efec d2 cd|ea^ga edcB|c2 A2 A2:|

